X: 8
M:C
L:1/8
K:D
adab afdf | adab abaf |
adab afdf | dABA dABd |
adab afdf | adab abaf |
gbaf edef | dABA dABd |]


